X: 36017
T: Saxophones, The
R: hornpipe
M: 4/4
K: Gmajor
|:(3gab ge (3fga fd|(3efg ed B3A|cBcd edcB|Addc d3f|
gbgd fafd|eged B3A|cBcd ecAF|G2FA G3d:|
K:D
|:Addc d3e|fABd e2f2|g3e f3e|dfeE F2G2|
Addc d3e|fABd e2f2|g3e f3e|1 dfec d3d:|2 dfeA c2d||

